!!!!SEGMENT: pl-gd--ee-1638--005-021_marenzio-luca--il-primo-libro-de-madrigali-spirituali-a-cinque-voci-dal-di-ch-io-presi-il-corso.krn
!!!cenid: 15xx:974
!!!COM: Marenzio, Luca
!!!COM-rismID: pe30003955
!!!CDT: ~1553-1599/08/22
!!!CNT: Italian
!!!GTL: Il Primo libro de madrigali spirituali a cinque voci
!!!OTL: Dal di ch’io presi il corso
!!!OMV: 021
!!!PDT: 1588
!!!AGN:
!!!SMS-siglum: PL-GD
!!!SMS-shelfmark: Ee 1638
!!!SMS-shelfwork: 005-021 G
!!!SMS-variant:
!!!SMS-altvar:
!!!NIFC-rismSourceID: 990039269
!!!NIFC-islandoraID: pl-gd:57883
!!!URL-pdf-islandora: https://repozytorium.nifc.pl/islandora/object/pl-gd%3A57883/datastream/PDF/view
!!!URL-scan: https://polish.musicsources.pl/pl/lokalizacje/galeria/klocki-introligatorskie/655 @EN{Scan on Polish Music Herritage in Open Access Website} @PL{Skany w portalu Dziedzictwo Muzyki Polskiej w otwartym dostępie}
!!!ONB-nifc: UWAGA: zbiór na stronach: Canto: s. 666-677, Alto: s. 514-525, Tenore: s. 362-373, Bassus: s. 210-221, Quinto: s. 58-69. Uwaga: utwory podzielone wg tytułów w spisach treści dostępnych na końcu każdej księgi głosowej.
!!!AIN: 1 alto 1 bass 1 soprn 1 tenor   1 vox
!!!key: F
**kern	**text	**kern	**text	**kern	**text	**kern	**text	**kern	**text
*part5	*part5	*part4	*part4	*part3	*part3	*part2	*part2	*part1	*part1
*staff5	*staff5	*staff4	*staff4	*staff3	*staff3	*staff2	*staff2	*staff1	*staff1
*I"BASSO	*	*I"TENORE 	*	*I"QVINTO 	*	*I"ALTO	*	*I"CANTO	*
*I'B	*	*I'T	*	*I'V	*	*I'A	*	*I'S	*
*ICvox	*	*ICvox	*	*ICvox	*	*ICvox	*	*ICvox	*
*Ibass	*	*Itenor  	*	*Ivox	*	*Ialto	*	*Isoprn	*
*clefC4	*	*clefC3	*	*clefC3	*	*clefC2	*	*clefG2	*
*k[b-]	*	*k[b-]	*	*k[b-]	*	*k[b-]	*	*k[b-]	*
*F:	*	*F:	*	*F:	*	*F:	*	*F:	*
*M2/1	*	*M2/1	*	*M2/1	*	*M2/1	*	*M2/1	*
*met(C)	*	*met(C)	*	*met(C)	*	*met(C)	*	*met(C)	*
=1-	=1-	=1-	=1-	=1-	=1-	=1-	=1-	=1-	=1-
!	!	!	!	!LO:TX:b:i:t=DAl dì	!	!LO:TX:a:i:t=Settima et vlt. Par.	!	!LO:TX:a:i:t=Settima et vlt. Par.	!
!LO:TX:a:i:t=Settima et vlt. Par.	!	!LO:TX:a:i:t=Settima et vlt. Par.	!	!LO:TX:a:i:t=Settima et vlt. Par.	!	!LO:TX:b:i:t=DAl dì	!	!LO:TX:b:i:t=DAl dì	!
!	!	!	!	!	!	!LO:TX:t=P:problem:podwójnie zapisany znak przykluczowy, kolejno: B- b-	!	!	!
1c	DAl	0r	.	00r	.	1r	.	1r	.
1c	dì	.	.	.	.	2r	.	2r	.
.	.	.	.	.	.	2c/	ch'io	2cc\	Ch'io
=2-	=2-	=2-	=2-	=2-	=2-	=2-	=2-	=2-	=2-
0r	.	1r	.	.	.	4d/	pre-	4f/	pre-
.	.	.	.	.	.	4e/	ſi il	4g/	ſi il
.	.	.	.	.	.	4f\	cor-	4a/	cor-
.	.	.	.	.	.	4g\	ſo in	4b-/	ſo in
.	.	1f	Dal	.	.	4a\	ver	4cc\	ver
.	.	.	.	.	.	4b-\	del	2b-/	del
.	.	.	.	.	.	2cc\	boſ-	.	.
.	.	.	.	.	.	.	.	4a/	boſ-
=3-	=3-	=3-	=3-	=3-	=3-	=3-	=3-	=3-	=3-
1B-	Dal	2f\	dì	2r	.	2dd\	-co	1b-	-co
.	.	4r	.	2f\	Ch'io	2d/	Dal	.	.
.	.	4f\	ch'io	.	.	.	.	.	.
1B-	dì	4d\	pre-	4B-/	pre-	1f	dì	1r	.
.	.	4e\	ſi il	4c/	ſi il	.	.	.	.
.	.	4f\	cor-	4d\	cor-	.	.	.	.
.	.	4g\	ſo in	4e\	ſo in	.	.	.	.
=4-	=4-	=4-	=4-	=4-	=4-	=4-	=4-	=4-	=4-
1r	.	4a\	ver	4f\	ver	1r	.	1cc	Dal
.	.	4e\	del	4g\	del	.	.	.	.
.	.	2.f\	bo-	2a\	boſ-	.	.	.	.
!	!	!	!	!	!	!LO:SIC:v:t=custos c	!	!LO:SIC:v:t=custos g	!
2r	.	.	.	1g	-co	1c	Dal	2cc\	dì
.	.	8e\	.	.	.	.	.	.	.
.	.	8d\	.	.	.	.	.	.	.
!	!	!LO:SIC:v:t=custos f	!	!	!	!	!	!LO:LB:g=original	!
2c\	ch'io	2e\	.	.	.	.	.	4r	.
.	.	.	.	.	.	.	.	4g/	ch'io
!	!	!LO:LB:g=original	!	!	!	!LO:LB:g=original	!	!	!
=5-	=5-	=5-	=5-	=5-	=5-	=5-	=5-	=5-	=5-
4F/	pre-	1f	-ſco	2r	.	1c	dì	4a/	pre-
4G/	ſi il	.	.	.	.	.	.	4b-/	ſi il
4A/	cor-	.	.	2c/	Dal	.	.	4cc\	cor-
4B-\	ſo in	.	.	.	.	.	.	4dd\	ſo in
!	!	!	!	!	!	!	!	!	!
4c\	ver	2r	.	1c	dì	2r	.	4ee\	ver
4d\	del	.	.	.	.	.	.	4ff\	del
2e\	boſ-	2c/	ch'io	.	.	2cc\	ch'io	2gg\	boſ-
=6-	=6-	=6-	=6-	=6-	=6-	=6-	=6-	=6-	=6-
!LO:SIC:v:t=custos F	!	!	!	!LO:SIC:v:t=custos c	!	!	!	!	!
2f\	-co	4d\	pre-	1r	.	4f\	pre-	2ff\	-co
.	.	4e\	ſi il	.	.	4g\	ſi il	.	.
!LO:LB:g=original	!	!	!	!	!	!	!	!	!
2F/	Dal	4f\	cor-	.	.	4a\	cor-	2cc\	in
.	.	4g\	ſo in	.	.	4b-\	ſo in	.	.
!	!	!	!	!LO:LB:g=original	!	!	!	!	!
2F/	dì	4a\	ver	2r	.	4cc\	ver	4ff\	ver
.	.	4f\	del	.	.	2b-\	del	4dd\	del
2F/	ch'io	2.f\	bo-	2c/	ch'io	.	.	2cc\	boſ-
.	.	.	.	.	.	4a\	boſ-	.	.
=7-	=7-	=7-	=7-	=7-	=7-	=7-	=7-	=7-	=7-
4BB-/	pre-	.	.	4d\	pre-	1b-	-co	2b-/	-co
4C/	ſi il	4e\	.	4e\	ſi il	.	.	.	.
4D/	cor-	2d\	.	4f\	cor-	.	.	4r	.
4E/	ſo in	.	.	4g\	ſo in	.	.	4g/	in
4F/	ver	1c	-ſco	4f\	ver	4r	.	4a/	ver
4G/	del	.	.	8e\	.	4g\	in	4b-/	del
.	.	.	.	8d\	.	.	.	.	.
2A/	boſ-	.	.	4c/	.	4e/	ver	2.cc\	bo-
.	.	.	.	4c/	del	4f\	del	.	.
=8-	=8-	=8-	=8-	=8-	=8-	=8-	=8-	=8-	=8-
1G	-co	2r	.	1d	boſ-	1g	boſ-	.	.
!	!	!	!	!	!	!	!	!LO:N:acc=#	!
.	.	.	.	.	.	.	.	8bn/	.
!	!	!	!	!	!	!	!	!LO:SIC:v:t=custos b	!
.	.	.	.	.	.	.	.	8a/	.
!	!	!	!	!	!	!	!	!LO:LB:g=original	!
!	!	!	!	!	!	!	!	!LO:N:acc=#	!
.	.	2g\	Al-	.	.	.	.	2bn/	.
2r	.	2.e\	-tro	0c	-co	2g\	-co	0cc	-ſco
2c\	Al-	.	.	.	.	4r	.	.	.
.	.	4e\	che	.	.	4g\	Al-	.	.
=9-	=9-	=9-	=9-	=9-	=9-	=9-	=9-	=9-	=9-
!	!	!	!	!	!	!LO:SIC:v:t=custos e	!	!	!
2.A/	-tro	4f\	piog-	.	.	2a\	-tro	.	.
!	!	!LO:SIC:v:t=custos a	!	!	!	!	!	!	!
.	.	4e\	-gia	.	.	.	.	.	.
!	!	!LO:LB:g=original	!	!	!	!LO:LB:g=original	!	!	!
.	.	4a\	mai	.	.	4e/	che	.	.
4A/	che	4a\	non	.	.	2f\	piog-	.	.
2B-\	piog-	2d\	vi-	0r	.	.	.	2r	.
.	.	.	.	.	.	4d/	-gia	.	.
2A/	-gia	2a\	-di	.	.	4e/	mai	2cc\	Al-
.	.	.	.	.	.	4e/	non	.	.
=10-	=10-	=10-	=10-	=10-	=10-	=10-	=10-	=10-	=10-
2d\	mai	2r	.	.	.	2f\	vi-	2.a/	-tro
2d\	non	2f\	Al-	.	.	2a\	-di	.	.
.	.	.	.	.	.	.	.	4a/	che
!LO:SIC:v:t=custos d	!	!	!	!	!	!	!	!	!
2G/	vi-	2.d\	-tro	2r	.	2r	.	2b-y/	piog-
!LO:LB:g=original	!	!	!	!	!	!	!	!	!
2d\	-di	.	.	2f\	Al-	4r	.	2a/	-gia
.	.	4d\	che	.	.	4a\	Al-	.	.
=11-	=11-	=11-	=11-	=11-	=11-	=11-	=11-	=11-	=11-
00r	.	2f#X\	piog-	2.d\	-tro	2a\	-tro	2dd\	mai
.	.	2f#\	-gia	.	.	4a\	che	2dd\	non
.	.	.	.	4d\	che	2b-\	piog-	.	.
.	.	4r	.	2e-X\	piog-	.	.	2g/	vi-
.	.	2g\	mai	.	.	4g\	-gia	.	.
.	.	.	.	2d\	-gia	2a\	mai	1dd\	-di
.	.	4f#X\	non	.	.	.	.	.	.
=12-	=12-	=12-	=12-	=12-	=12-	=12-	=12-	=12-	=12-
!	!	!	!	!LO:SIC:v:t=custos g	!	!LO:N:acc=#	!	!	!
.	.	2g\	vi-	2g\	mai	1bn	non	.	.
!	!	!	!	!LO:LB:g=original	!	!	!	!	!
.	.	2G/	-di	2g\	non	.	.	2dd\	non
.	.	2r	.	2c/	vi-	2cc\	vi-	2ee-X\	vi-
.	.	1G/	ò	2g\	di ò	2b\	di ò	2dd\	di ò
=13-	=13-	=13-	=13-	=13-	=13-	=13-	=13-	=13-	=13-
00r	.	.	.	1e-X	ven-	8b-y\	ven-	8g/	ven-
.	.	.	.	.	.	8a\	.	8f/	.
.	.	.	.	.	.	8g\	.	8g/	.
!	!	!	!	!	!	!LO:SIC:v:t=custos g	!	!	!
.	.	.	.	.	.	8f\	.	8a/	.
!	!	!	!	!	!	!LO:LB:g=original	!	!LO:SIC:v:t=custos b-	!
.	.	1g	ven-	.	.	2g\	.	8b-/	.
!	!	!	!	!	!	!	!	!LO:LB:g=original	!
.	.	.	.	.	.	.	.	8a/	.
.	.	.	.	.	.	.	.	8b-/	.
.	.	.	.	.	.	.	.	8cc\	.
.	.	.	.	1d	-to	1a	-to	2dd\	.
.	.	2f#X\	-to	.	.	.	.	2a/	-to
=14-	=14-	=14-	=14-	=14-	=14-	=14-	=14-	=14-	=14-
!	!	!	!	!	!	!	!	!LO:N:acc=#	!
.	.	4r	.	2G/	Sì	2g\	Sì	2bn/	Sì
!	!	!LO:SIC:v:t=custos e	!	!	!	!	!	!	!
.	.	4d\	Sì	.	.	.	.	.	.
!	!	!LO:LB:g=original	!	!	!	!	!	!	!
.	.	1e	fe	1c	fe	1g	fe	1cc	fe
!	!	!	!	!LO:N:acc=#	!	!	!	!	!
.	.	2d\	l'a-	2Bn/	l'a-	2g\	l'a-	1dd\	l'a-
=15-	=15-	=15-	=15-	=15-	=15-	=15-	=15-	=15-	=15-
00r	.	1.e	-cer-	1c	-cer-	1g	-cer-	.	.
.	.	.	.	.	.	.	.	2.cc\	-cer-
.	.	.	.	1G	-bo	1.g	-bo	.	.
.	.	.	.	.	.	.	.	8b-/	.
.	.	.	.	.	.	.	.	8a/	.
.	.	2d\	-bo	.	.	.	.	2b-/	.
=16-	=16-	=16-	=16-	=16-	=16-	=16-	=16-	=16-	=16-
*	*	*	*	*	*	*	*	*lig	*
.	.	1c	ſtral	2.A/	ſtral	.	.	1a	-bo
.	.	.	.	.	.	2.f\	ſtral	.	.
.	.	.	.	4B-y/	.	.	.	.	.
.	.	2r	.	1c	.	.	.	1.g	.
.	.	.	.	.	.	8e/	.	.	.
.	.	.	.	.	.	8d/	.	.	.
.	.	2c/	tri-	.	.	4e/	.	.	.
.	.	.	.	.	.	4cc\	tri-	.	.
*	*	*	*	*	*	*	*	*Xlig	*
=17-	=17-	=17-	=17-	=17-	=17-	=17-	=17-	=17-	=17-
0r	.	2e\	-ſta	1r	.	2cc\	-ſta	.	.
.	.	2fny\	mia	.	.	2a\	mia	2cc\	ſtral
.	.	4c/	vi-	2r	.	1.g	vi-	2r	.
.	.	4d\	.	.	.	.	.	.	.
.	.	4e\	.	2c/	tri-	.	.	2cc\	tri-
.	.	4f\	.	.	.	.	.	.	.
=18-	=18-	=18-	=18-	=18-	=18-	=18-	=18-	=18-	=18-
1r	.	2g\	.	2eny\	-ſta	.	.	2cc\	-ſta
.	.	1f	.	2f\	mia	2cc\	-ta	2a/	mia
!	!	!	!	!	!	!	!	!LO:SIC:v:t=custos g	!
2r	.	.	.	0c	vi-	2r	.	1g	vi-
2C/	tri-	2e\	-ta	.	.	2cc\	tri-	.	.
!	!	!	!	!	!	!	!	!LO:LB:g=original	!
=19-	=19-	=19-	=19-	=19-	=19-	=19-	=19-	=19-	=19-
2E/	-ſta	2r	.	.	.	2cc\	-ſta	2g/	-ta
2F/	mia	2c/	tri-	.	.	2a\	mia	4r	.
.	.	.	.	.	.	.	.	4c/	tri-
!	!	!	!	!LO:N:vis=00	!	!LO:SIC:v:t=custos f	!	!	!
0C	vi-	2c/	-ſta	1%5c	-ta.	2g\	vi-	2e/	-ſta
!	!	!	!	!	!	!LO:LB:g=original	!	!	!
.	.	2A/	mia	.	.	2.f\	.	2f/	mia
=20-	=20-	=20-	=20-	=20-	=20-	=20-	=20-	=20-	=20-
.	.	1G	vi-	.	.	.	.	1g	vi-
.	.	.	.	.	.	8e/	.	.	.
.	.	.	.	.	.	8d/	.	.	.
.	.	.	.	.	.	2e/	.	.	.
!LO:N:vis=00	!	!LO:N:vis=00	!	!	!	!LO:N:vis=00	!	!LO:N:vis=00	!
0.F	-ta.	0.F	-ta.	.	.	0.f	-ta.	0.a	-ta.
=21-	=21-	=21-	=21-	=21-	=21-	=21-	=21-	=21-	=21-
.	.	.	.	.	.	.	.	.	.
==	==	==	==	==	==	==	==	==	==
*-	*-	*-	*-	*-	*-	*-	*-	*-	*-
!!!system-decoration: [(s1,s2,s3,s4,s5)]
!!!ENC: Mateusz Solarz
!!!END: 2022-06-29
!!!ENC: Natalia Wrzos
!!!END: 2022-07-18
